X: 14211
T: Full Moon, The
R: reel
M: 4/4
K: Gmajor
FDFG A2 FA|defg e2 gf|eccB cded|cdeg fedB|
ADFG AFAB|defg e2 gf|eccB cded|cdeg fd d2:|
eccB c2 AB|cdeg fedf|eccB c2 AB|cdef d3 e|
fefg a2 fe|dBAF EFGA|GFEF GABG|EFGE DFAd|
eccB c2 AB|cdeg fedf|eccB c2 AB|cdef d3 e|
fefg a2 fe|dBAF EFGA|GFEF GABG|EFGE D4|

